web/themes/custom/surf_main/images/icons/ui-icon-vimeo.svg

<svg fill="none" height="32" viewBox="0 0 32 32" width="32" xmlns="http://www.w3.org/2000/svg"><path d="m29.32 9.54714c-.1226 2.70266-2.0266 6.39996-5.7066 11.09736-3.804 4.904-7.0267 7.356-9.664 7.356-1.6334 0-3.0134-1.496-4.14136-4.4787-.752-2.74-1.50267-5.48-2.26267-8.2133-.836-2.9827-1.73333-4.4787-2.7-4.4787-.20666 0-.94266.44-2.19333 1.3067l-1.31867-1.6867c1.38-1.20799 2.74667-2.40666 4.088-3.61333 1.84-1.58 3.22934-2.40666 4.14934-2.49066 2.17729-.204 3.51999 1.268 4.02669 4.43333.544 3.40796.92 5.53336 1.1346 6.35996.6294 2.832 1.32 4.244 2.0707 4.244.5827 0 1.4653-.9173 2.6387-2.7546 1.1733-1.8374 1.8013-3.2334 1.8866-4.1907.168-1.5867-.46-2.376-1.8866-2.376-.6667 0-1.3574.152-2.0707.456 1.3733-4.47066 4.0027-6.64266 7.884-6.51333 2.876.076 4.2333 1.928 4.0653 5.54134z" fill="#fff"/></svg>

<svg width="32" height="32" viewBox="0 0 32 32" fill="none" xmlns="http://www.w3.org/2000/svg">
<path d="M29.32 9.54714C29.1974 12.2498 27.2934 15.9471 23.6134 20.6445C19.8094 25.5485 16.5867 28.0005 13.9494 28.0005C12.316 28.0005 10.936 26.5045 9.80804 23.5218C9.05604 20.7818 8.30537 18.0418 7.54537 15.3085C6.70937 12.3258 5.81204 10.8298 4.84537 10.8298C4.63871 10.8298 3.90271 11.2698 2.65204 12.1365L1.33337 10.4498C2.71337 9.24181 4.08004 8.04314 5.42137 6.83647C7.26137 5.25647 8.65071 4.42981 9.57071 4.34581C11.748 4.14181 13.0907 5.61381 13.5974 8.77914C14.1414 12.1871 14.5174 14.3125 14.732 15.1391C15.3614 17.9711 16.052 19.3831 16.8027 19.3831C17.3854 19.3831 18.268 18.4658 19.4414 16.6285C20.6147 14.7911 21.2427 13.3951 21.328 12.4378C21.496 10.8511 20.868 10.0618 19.4414 10.0618C18.7747 10.0618 18.084 10.2138 17.3707 10.5178C18.744 6.04714 21.3734 3.87514 25.2547 4.00447C28.1307 4.08047 29.488 5.93247 29.32 9.54581V9.54714Z" fill="white"/>
</svg>
